X:1
T:Title
%%score 1 2
L:1/8
Q:1/4=98
M:4/4
K:Bb
V:1 treble nm="Grand Piano, Soprano"
V:2 bass nm="Choir Pad, Rest in the Arms of My Savior"
V:1
 [DF] [DF]2 [B,D]- [B,D]/[CE]/ [DF]2 [DF]- | [DF]/[DF]/ [EG]2 [EB]- [EB]/[EG]/ [DF]3 | %2
w: By~John~Wesley~Dennis * * * * * *||
 [DF] [DF]2 [FB]- [FB]/[Fc]/ [Fd]2 [Ec]- | [Ec]/[DB]/ [=Ec]2 [Ec]- [Ec]/[Ed]/ [Fc]3 | %4
w: ||
 [EF] [DF]2 [B,D]- [B,D]/[CE]/ [DF]2 [DF]- | [DF]/[DF]/ [EG]2 [EB]- [EB]/[EG]/ [GB]3 | %6
w: ||
 [EG] [DF]2 [FB]- [FB]/[Fc]/ [Fd]2 [DB]- | [DB]/[Fd]/ [Ec]3- [Ec] [DB]3 | %8
w: ||
 z [Fd]2 [Fd]- [Fd]/[Fd]/ [DB]2 [FB]- | [FB]/[Gc]/ [Fd]3- [Fd] [Fc]3- | %10
w: ||
 [Fc] [Fc]2 [Fc]- [Fc]/[Fc]/ [=Ed]2 [Ec]- | [Ec]/[=EG]/ [EB]3- [EB] [FA]3 | %12
w: ||
 [EF] [DF]2 [B,D]- [B,D]/[CE]/ [DF]2 [DF]- | [DF]/[DF]/ [EG]2 [EB]- [EB]/[EG]/ [GB]3 | %14
w: ||
 [EG] [DF]2 [FB]- [FB]/[Fc]/ [Fd]2 [DB]- | [DB]/[Fd]/ [Ec]3- [Ec] [DB]3- | [DB]4 z4 |] %17
w: |||
V:2
 [B,,B,] [B,,B,]2 [B,,F,]- [B,,F,]/[B,,F,]/ [B,,B,]2 [B,,B,]- | %1
 [B,,B,]/[B,,B,]/ [E,B,]2 [E,G,]- [E,G,]/[E,B,]/ [B,,B,]3 | %2
 [B,,B,] [B,,B,]2 [D,B,]- [D,B,]/[F,A,]/ B,2 [F,A,]- | %3
 [F,A,]/[G,B,]/ [C,G,]2 [C,B,]- [C,B,]/[C,B,]/ [F,A,]3 | %4
 [F,A,] [B,,B,]2 [B,,F,]- [B,,F,]/[B,,F,]/ [B,,B,]2 [B,,B,]- | %5
 [B,,B,]/[B,,B,]/ [E,B,]2 [E,G,]- [E,G,]/[E,B,]/ [E,B,]3 | %6
 [E,B,] [B,,B,]2 [D,B,]- [D,B,]/[F,A,]/ B,2 B,- | B,/B,/ [F,A,]3- [F,A,] [B,,B,]3 | %8
 z [B,,B,]2 [B,,B,]- [B,,B,]/[B,,B,]/ [B,,F,]2 [D,B,]- | [D,B,]/[E,B,]/ [F,B,]3- [F,B,] [F,A,]3- | %10
 [F,A,] [F,A,]2 [F,A,]- [F,A,]/[F,A,]/ [C,B,]2 [C,G,]- | [C,G,]/[C,C]/ [C,C]3- [C,C] [F,C]3 | %12
 [F,A,] [B,,B,]2 [B,,F,]- [B,,F,]/[B,,F,]/ [B,,B,]2 [B,,B,]- | %13
 [B,,B,]/[B,,B,]/ [E,B,]2 [E,G,]- [E,G,]/[E,B,]/ [E,B,]3 | %14
 [E,B,] [B,,B,]2 [D,B,]- [D,B,]/[F,A,]/ B,2 B,- | B,/B,/ [F,A,]3- [F,A,] [B,,B,]3- | [B,,B,]4 z4 |] %17

